Numix-GalliumOS/22/status/todo-indicator.svg

<?xml version="1.0" encoding="UTF-8" standalone="no"?>
<!-- Created with Inkscape (http://www.inkscape.org/) -->

<svg
   xmlns:dc="http://purl.org/dc/elements/1.1/"
   xmlns:cc="http://creativecommons.org/ns#"
   xmlns:rdf="http://www.w3.org/1999/02/22-rdf-syntax-ns#"
   xmlns:svg="http://www.w3.org/2000/svg"
   xmlns="http://www.w3.org/2000/svg"
   xmlns:sodipodi="http://sodipodi.sourceforge.net/DTD/sodipodi-0.dtd"
   xmlns:inkscape="http://www.inkscape.org/namespaces/inkscape"
   version="1.0"
   width="22"
   height="22"
   id="svg3212"
   inkscape:version="0.91 r"
   sodipodi:docname="todo-indicator.svg">
  <metadata
     id="metadata13">
    <rdf:RDF>
      <cc:Work
         rdf:about="">
        <dc:format>image/svg+xml</dc:format>
        <dc:type
           rdf:resource="http://purl.org/dc/dcmitype/StillImage" />
      </cc:Work>
    </rdf:RDF>
  </metadata>
  <sodipodi:namedview
     pagecolor="#ffffff"
     bordercolor="#666666"
     borderopacity="1"
     objecttolerance="10"
     gridtolerance="10"
     guidetolerance="10"
     inkscape:pageopacity="0"
     inkscape:pageshadow="2"
     inkscape:window-width="1366"
     inkscape:window-height="747"
     id="namedview11"
     showgrid="false"
     inkscape:zoom="26.818182"
     inkscape:cx="14.602325"
     inkscape:cy="9.4291054"
     inkscape:window-x="0"
     inkscape:window-y="21"
     inkscape:window-maximized="1"
     inkscape:current-layer="svg3212" />
  <defs
     id="defs3214" />
  <path
     style="opacity:1;fill:#ececec;fill-opacity:1;fill-rule:nonzero;stroke:none;stroke-width:1;marker:none;visibility:visible;display:inline;overflow:visible;enable-background:accumulate"
     id="rect2386"
     d="M 5,4 C 3.892,4 3,4.892 3,6 l 0,10 c 0,1.108 0.892,2 2,2 l 12,0 c 1.108,0 2,-0.892 2,-2 L 19,6 C 19,4.892 18.108,4 17,4 L 5,4 z m 9.03125,2 c 0.05517,0.00526 0.135626,0.03589 0.1875,0.0625 l 1.5625,0.78125 c 0.207499,0.1064389 0.269632,0.3677093 0.15625,0.5625 l -4.875,8.375 C 10.975693,15.930386 10.793876,16.020032 10.625,16 c -0.0517,-0.0061 -0.107619,-0.0063 -0.15625,-0.03125 -0.0052,-0.0024 -4.2500001,-3.3125 -4.25,-3.3125 C 6.0112529,12.549811 5.9491197,12.288537 6.0625,12.09375 l 1.03125,-1.25 C 7.2071332,10.648957 7.4800012,10.581059 7.6875,10.6875 L 10,12.4375 13.625,6.21875 C 13.710038,6.0726566 13.865742,5.9842316 14.03125,6 z" />
</svg>

<svg xmlns="http://www.w3.org/2000/svg" viewBox="0 0 22 22">
 <path d="m 5 4 c -1.108 0 -2 0.892 -2 2 l 0 10 c 0 1.108 0.892 2 2 2 l 12 0 c 1.108 0 2 -0.892 2 -2 l 0 -10 c 0 -1.108 -0.892 -2 -2 -2 l -12 0 z m 9.03 2 c 0.055 0.005 0.136 0.036 0.188 0.063 l 1.563 0.781 c 0.207 0.106 0.27 0.368 0.156 0.563 l -4.875 8.375 c -0.087 0.149 -0.269 0.239 -0.438 0.219 c -0.052 -0.006 -0.108 -0.006 -0.156 -0.031 -0.005 -0.002 -4.25 -3.313 -4.25 -3.313 c -0.207 -0.106 -0.27 -0.368 -0.156 -0.563 l 1.031 -1.25 c 0.113 -0.195 0.386 -0.263 0.594 -0.156 l 2.313 1.75 3.625 -6.219 c 0.085 -0.146 0.241 -0.235 0.406 -0.219 z" style="visibility:visible;fill:#ececec;opacity:1;fill-opacity:1;stroke:none;display:inline;fill-rule:nonzero"/>
</svg>
